static/images/logomark-7.svg

<svg fill="none" height="285" viewBox="0 0 245 285" width="245" xmlns="http://www.w3.org/2000/svg"><g fill="#b69b79"><path d="m103.572 8.16568s-12.8216 3.47872-20.2101 15.86362c-7.3884 12.388-3.9006 26.7308-3.9006 26.7308s5.643-4.4895 8.4721-9.7045c2.8291-5.2151 2.3192-10.8672 5.0694-17.8944 2.5619-6.5628 10.5692-14.99552 10.5692-14.99552zm-24.9364 50.65372s11.8993-8.7999 19.2877-22.9273c7.3887-14.1273 13.8027-26.07813 22.9277-31.62099 8.651-5.248419 23.255-6.5203 43.954 1.13832 18.338 6.78437 25.48 16.57397 25.48 16.57397s-28.95-6.4566-40.964-2.1735c-15.539 5.5429-23.811 22.2626-31.293 28.9043-13.481 11.9539-39.3924 10.1052-39.3924 10.1052z"/><path d="m214.509 46.0005s-4.672-11.6261-18.472-15.4296c-13.799-3.8035-25.968-6.9544-38.9-4.5624-12.931 2.392-19.124 10.9734-19.233 14.2336-.109 3.2601 9.234 12.9313 23.58 13.2561s29.053-8.2688 33.142-10.8672c8.639-5.4882 19.883 3.3695 19.883 3.3695zm-80.621 1.9548s6.193 5.977 4.887 10.2146c-1.305 4.2376-4.559 7.604-11.841 8.1503-7.276.5434-20.208.1093-21.95-2.4982-1.73-2.6075 1.742-3.9128 3.154-4.2376 1.417-.3248 9.677-.3248 14.671-2.9353 4.99-2.6075 11.079-8.6938 11.079-8.6938zm-12.154 27.4928s21.27-7.1699 23.562-7.173c6.411-.003 13.978 11.532 14.67 21.5158 1.087 15.7541-17.712 21.9471-17.712 21.9471s7.498-9.671 7.607-17.1692c.109-7.4977-2.683-12.1117-5.977-13.9087-5.977-3.2572-22.15-5.212-22.15-5.212zm32.686-13.9118s15.539 21.625 29.773 21.625c14.233 0 19.992-7.4977 30.968-7.0636 10.977.434 20.863 18.6897 20.863 18.6897s-2.607-43.0286-31.077-42.9193c-28.467.1093-28.747 9.7805-36.074 10.3208-8.093.598-14.453-.6526-14.453-.6526zm-37.315 22.0621s6.657 9.2736 6.514 16.9476c-.149 7.68-6.089 26.515-4.489 37.091 1.587 10.573 21.737 22.314 21.737 22.314s-10.397-15.53-11.122-25.104c-.723-9.562 4.747-19.81 2.862-31.257-1.879-11.4466-15.502-19.9916-15.502-19.9916zm51.227-.2914s2.025 6.66 2.025 10.7215c0 6.2315-12.176 15.6455-12.169 27.4535.006 13.277 12.897 19.485 15.068 25.422 1.991 5.449 2.95 13.332 2.95 13.332s12.279-24.888 10.664-41.001c-3.181-31.8725-18.538-35.928-18.538-35.928z"/><path d="m186.476 92.5077s6.301-5.7584 12.822-5.3243c6.52.4371 18.255 2.392 22.708 22.4936 4.453 20.104 1.157 37.549 2.174 45.205 1.845 13.908 6.736 18.908 6.736 18.908s-19.124-7.392-24.23-19.449c0 0-8.366-14.127-8.366-33.685 0-15.111-11.844-28.1483-11.844-28.1483zm36.836-.4371s8.365 16.6254 10.757 34.8814c2.517 19.199 3.151 33.284 3.151 33.284s9.453-12.424 6.736-35.458c-2.486-21.081-20.644-32.7074-20.644-32.7074zm-111.486 58.8894s-11.8446-5.54-15.976-19.349c-4.1252-13.799.2125-16.188-1.3113-28.901-1.5239-12.7127-24.0778-26.8704-9.4435-35.2059 11.626-6.6296 25.7408 11.0827 28.6768 25.4255 4.814 23.5224-6.742 32.8684-6.196 42.4854.553 9.577 4.25 15.545 4.25 15.545zm30.571-29.187s-3.622 8.618 1.011 20.933c4.638 12.318 13.474 12.895 14.78 25.499 1.353 13.092-1.594 32.164-1.594 32.164s16.437-15.512 12.895-35.352c-2.174-12.172-9.48-17.242-13.976-22.894-5.011-6.292-13.116-20.353-13.116-20.35zm46.65 29.187s1.967 14.601-6.002 24.451c-6.687 8.269-15.839 14.494-15.969 27.708-.104 10.567 19.94 25.21 19.94 25.21s-6.63-12.928-1.451-21.582c3.497-5.847 11.301-18.538 12.931-29.269 3.288-21.579-9.449-26.518-9.449-26.518zm15.502 12.172s3.512 19.267 3.479 27.384c-.073 16.659-8.26 32.018-8.26 32.018s16.037-8.441 16.225-30.716c.149-17.093-11.444-28.686-11.444-28.686zm-83.592-3.472s9.343 7.698 9.492 20.447c.194 16.977 18.465 25.911 18.465 25.911s-2.465-3.913-3.042-9.999c-.579-6.083 4.751-15.008-1.885-23.468-11.586-14.777-23.03-12.891-23.03-12.891zm-27.5293-12.316s2.5923.741 3.3391 5.792c1.7363 11.881-13.9635 30.431-12.3243 45.205 5.0785 45.636 50.4955 52.882 50.4955 52.882s-13.978-11.732-16.303-27.818c-2.757-19.135 8.253-35.169 2.325-48.674-11.329-25.793-27.5323-27.387-27.5323-27.387z"/><path d="m126.46 199.279s-4.055 23.689 8.478 43.684c12.531 19.992 36.436 41.869 36.436 41.869s-.726-38.827-10.722-53.458c-9.999-14.635-34.192-32.095-34.192-32.095zm44.188 27.025s-2.607 5.501 0 13.472c2.608 7.968 10.868 16.805 10.868 16.805s-1.594-3.191-1.74-7.969c-.143-4.781 1.035-9.367-.434-13.043-2.899-7.24-8.694-9.265-8.694-9.265zm-128.7271-32.744c-3.8399-1.581-6.2926-.437-8.1109 2.319-1.8182 2.751 2.4649 11.086 2.4649 11.086l5.646-.871s.6527 4.128 1.961 7.024c1.3113 2.896 4.0615 5.938 4.0615 5.938s4.6262-6.882 8.7696-8.916c4.1193-2.021 8.6452-3.178 10.9401-4.274 5.7219-2.747 10.94-14.916 10.94-14.916s-9.4223 5.722-17.8216 8.329c-4.4895 1.399-11.2253 2.465-11.2253 2.465s-5.039-7.115-7.6253-8.184zm-16.7318-53.17s-4.7839 1.375-7.8255.58c-3.0416-.796-5.725-5-9.92922-5.504-4.2042-.507-6.30175.796-7.245799 2.028-.947083 1.233 1.878999 9.128 3.906729 11.304 2.0338 2.171 6.66899 6.66 7.25189 8.473.5737 1.821.8013 17.757 12.3151 24.924 11.5228 7.167 32.8959 4.997 35.2819 3.983 2.3889-1.014 8.7665-7.395 6.4444-9.632-2.3192-2.249-11.8811 5.789-26.8766 4.122-11.8537-1.323-22.5296-5.873-21.3002-22.317.6344-8.46 6.8117-7.315 8.114-12.676 1.3113-5.358-.1367-5.285-.1367-5.285zm29.4173-10.94h-2.6075s-8.117 5.506-8.1808 6.885c-.0637 1.375 12.2423 6.156 12.2423 6.156s.5039 5.649 5.8707 7.968c5.3668 2.328 15.724.947 15.724.947l-13.335-7.826s.3157-1.681.0637-2.173c-.4432-.923-3.2541-2.462-3.2541-2.462s.6527-2.101-.4037-3.187c-1.0503-1.087-7.2094-1.74-7.2094-1.74zm.425-31.873s21.9286 2.814 22.5994 5.361c1.8851 7.1-19.0448 15.575-19.0448 15.575l5.5793-6.954s-1.8851-1.451-2.0338-4.563c-.1457-3.114 1.3811-4.128 1.3811-4.128zm15.7877-49.1148s1.8851 4.9995 1.5876 8.2597c-.2914 3.2601-.3309 5.6825.0364 6.8086.8348 2.5499 3.5971 3.9827 3.5971 3.9827s-3.9826 2.6075-5.725 4.6352c-1.7363 2.0277-2.7471 4.1283-4.7081 5.215-1.9609 1.0867-14.1273 6.0134-17.3905 8.8395-3.2632 2.826-23.2521 34.2651-24.703 36.2201-1.4541 1.955-13.0376 8.111-13.0376 8.111s7.3156-6.955 9.6985-9.851c2.3889-2.899 18.0128-34.0946 23.076-37.8131 5.0511-3.7094 18.2192-11.2284 19.8098-14.1274 1.6089-2.8928 7.7588-20.2803 7.7588-20.2803z"/></g></svg>

<svg width="245" height="285" viewBox="0 0 245 285" fill="none" xmlns="http://www.w3.org/2000/svg">
<path d="M103.572 8.16568C103.572 8.16568 90.7504 11.6444 83.3619 24.0293C75.9735 36.4173 79.4613 50.7601 79.4613 50.7601C79.4613 50.7601 85.1043 46.2706 87.9334 41.0556C90.7625 35.8405 90.2526 30.1884 93.0028 23.1612C95.5647 16.5984 103.572 8.16568 103.572 8.16568V8.16568ZM78.6356 58.8194C78.6356 58.8194 90.5349 50.0195 97.9233 35.8921C105.312 21.7648 111.726 9.81397 120.851 4.27111C129.502 -0.977309 144.106 -2.24919 164.805 5.40943C183.143 12.1938 190.285 21.9834 190.285 21.9834C190.285 21.9834 161.335 15.5268 149.321 19.8099C133.782 25.3528 125.51 42.0725 118.028 48.7142C104.547 60.6681 78.6356 58.8194 78.6356 58.8194Z" fill="#B69B79"/>
<path d="M214.509 46.0005C214.509 46.0005 209.837 34.3744 196.037 30.5709C182.238 26.7674 170.069 23.6165 157.137 26.0085C144.206 28.4005 138.013 36.9819 137.904 40.2421C137.795 43.5022 147.138 53.1734 161.484 53.4982C175.83 53.823 190.537 45.2294 194.626 42.631C203.265 37.1428 214.509 46.0005 214.509 46.0005V46.0005ZM133.888 47.9553C133.888 47.9553 140.081 53.9323 138.775 58.1699C137.47 62.4075 134.216 65.7739 126.934 66.3202C119.658 66.8636 106.726 66.4295 104.984 63.822C103.254 61.2145 106.726 59.9092 108.138 59.5844C109.555 59.2596 117.815 59.2596 122.809 56.6491C127.799 54.0416 133.888 47.9553 133.888 47.9553V47.9553ZM121.734 75.4481C121.734 75.4481 143.004 68.2782 145.296 68.2751C151.707 68.2721 159.274 79.8071 159.966 89.7909C161.053 105.545 142.254 111.738 142.254 111.738C142.254 111.738 149.752 102.067 149.861 94.5688C149.97 87.0711 147.178 82.4571 143.884 80.6601C137.907 77.4029 121.734 75.4481 121.734 75.4481V75.4481ZM154.42 61.5363C154.42 61.5363 169.959 83.1613 184.193 83.1613C198.426 83.1613 204.185 75.6636 215.161 76.0977C226.138 76.5317 236.024 94.7874 236.024 94.7874C236.024 94.7874 233.417 51.7588 204.947 51.8681C176.48 51.9774 176.2 61.6486 168.873 62.1889C160.78 62.7869 154.42 61.5363 154.42 61.5363V61.5363ZM117.105 83.5984C117.105 83.5984 123.762 92.872 123.619 100.546C123.47 108.226 117.53 127.061 119.13 137.637C120.717 148.21 140.867 159.951 140.867 159.951C140.867 159.951 130.47 144.421 129.745 134.847C129.022 125.285 134.492 115.037 132.607 103.59C130.728 92.1434 117.105 83.5984 117.105 83.5984V83.5984ZM168.332 83.307C168.332 83.307 170.357 89.967 170.357 94.0285C170.357 100.26 158.181 109.674 158.188 121.482C158.194 134.759 171.085 140.967 173.256 146.904C175.247 152.353 176.206 160.236 176.206 160.236C176.206 160.236 188.485 135.348 186.87 119.235C183.689 87.3625 168.332 83.307 168.332 83.307Z" fill="#B69B79"/>
<path d="M186.476 92.5077C186.476 92.5077 192.777 86.7493 199.298 87.1834C205.818 87.6205 217.553 89.5754 222.006 109.677C226.459 129.781 223.163 147.226 224.18 154.882C226.025 168.79 230.916 173.79 230.916 173.79C230.916 173.79 211.792 166.398 206.686 154.341C206.686 154.341 198.32 140.214 198.32 120.656C198.32 105.545 186.476 92.5077 186.476 92.5077V92.5077ZM223.312 92.0706C223.312 92.0706 231.677 108.696 234.069 126.952C236.586 146.151 237.22 160.236 237.22 160.236C237.22 160.236 246.673 147.812 243.956 124.778C241.47 103.697 223.312 92.0706 223.312 92.0706V92.0706ZM111.826 150.96C111.826 150.96 99.9814 145.42 95.85 131.611C91.7248 117.812 96.0625 115.423 94.5387 102.71C93.0148 89.9973 70.4609 75.8396 85.0952 67.5041C96.7212 60.8745 110.836 78.5868 113.772 92.9296C118.586 116.452 107.03 125.798 107.576 135.415C108.129 144.992 111.826 150.96 111.826 150.96ZM142.397 121.773C142.397 121.773 138.775 130.391 143.408 142.706C148.046 155.024 156.882 155.601 158.188 168.205C159.541 181.297 156.594 200.369 156.594 200.369C156.594 200.369 173.031 184.857 169.489 165.017C167.315 152.845 160.009 147.775 155.513 142.123C150.502 135.831 142.397 121.77 142.397 121.773V121.773ZM189.047 150.96C189.047 150.96 191.014 165.561 183.045 175.411C176.358 183.68 167.206 189.905 167.076 203.119C166.972 213.686 187.016 228.329 187.016 228.329C187.016 228.329 180.386 215.401 185.565 206.747C189.062 200.9 196.866 188.209 198.496 177.478C201.784 155.899 189.047 150.96 189.047 150.96V150.96ZM204.549 163.132C204.549 163.132 208.061 182.399 208.028 190.516C207.955 207.175 199.768 222.534 199.768 222.534C199.768 222.534 215.805 214.093 215.993 191.818C216.142 174.725 204.549 163.132 204.549 163.132ZM120.957 159.66C120.957 159.66 130.3 167.358 130.449 180.107C130.643 197.084 148.914 206.018 148.914 206.018C148.914 206.018 146.449 202.105 145.872 196.019C145.293 189.936 150.623 181.011 143.987 172.551C132.401 157.774 120.957 159.66 120.957 159.66ZM93.4277 147.344C93.4277 147.344 96.02 148.085 96.7668 153.136C98.5031 165.017 82.8033 183.567 84.4425 198.341C89.521 243.977 134.938 251.223 134.938 251.223C134.938 251.223 120.96 239.491 118.635 223.405C115.878 204.27 126.888 188.236 120.96 174.731C109.631 148.938 93.4277 147.344 93.4277 147.344V147.344Z" fill="#B69B79"/>
<path d="M126.46 199.279C126.46 199.279 122.405 222.968 134.938 242.963C147.469 262.955 171.374 284.832 171.374 284.832C171.374 284.832 170.648 246.005 160.652 231.374C150.653 216.739 126.46 199.279 126.46 199.279V199.279ZM170.648 226.304C170.648 226.304 168.041 231.805 170.648 239.776C173.256 247.744 181.516 256.581 181.516 256.581C181.516 256.581 179.922 253.39 179.776 248.612C179.633 243.831 180.811 239.245 179.342 235.569C176.443 228.329 170.648 226.304 170.648 226.304ZM41.9209 193.56C38.081 191.979 35.6283 193.123 33.81 195.879C31.9918 198.63 36.2749 206.965 36.2749 206.965L41.9209 206.094C41.9209 206.094 42.5736 210.222 43.8819 213.118C45.1932 216.014 47.9434 219.056 47.9434 219.056C47.9434 219.056 52.5696 212.174 56.713 210.14C60.8323 208.119 65.3582 206.962 67.6531 205.866C73.375 203.119 78.5931 190.95 78.5931 190.95C78.5931 190.95 69.1708 196.672 60.7715 199.279C56.282 200.678 49.5462 201.744 49.5462 201.744C49.5462 201.744 44.5072 194.629 41.9209 193.56ZM25.1891 140.39C25.1891 140.39 20.4052 141.765 17.3636 140.97C14.322 140.174 11.6386 135.97 7.43438 135.466C3.23018 134.959 1.13263 136.262 0.188581 137.494C-0.758502 138.727 2.06758 146.622 4.09531 148.798C6.12911 150.969 10.7643 155.458 11.3472 157.271C11.9209 159.092 12.1485 175.028 23.6623 182.195C35.1851 189.362 56.5582 187.192 58.9442 186.178C61.3331 185.164 67.7107 178.783 65.3886 176.546C63.0694 174.297 53.5075 182.335 38.512 180.668C26.6583 179.345 15.9824 174.795 17.2118 158.351C17.8462 149.891 24.0235 151.036 25.3258 145.675C26.6371 140.317 25.1891 140.39 25.1891 140.39V140.39ZM54.6064 129.45H51.9989C51.9989 129.45 43.8819 134.956 43.8181 136.335C43.7544 137.71 56.0604 142.491 56.0604 142.491C56.0604 142.491 56.5643 148.14 61.9311 150.459C67.2979 152.787 77.6551 151.406 77.6551 151.406L64.3201 143.58C64.3201 143.58 64.6358 141.899 64.3838 141.407C63.9406 140.484 61.1297 138.945 61.1297 138.945C61.1297 138.945 61.7824 136.844 60.726 135.758C59.6757 134.671 53.5166 134.018 53.5166 134.018L54.6064 129.45V129.45ZM55.0314 97.577C55.0314 97.577 76.96 100.391 77.6308 102.938C79.5159 110.038 58.586 118.513 58.586 118.513L64.1653 111.559C64.1653 111.559 62.2802 110.108 62.1315 106.996C61.9858 103.882 63.5126 102.868 63.5126 102.868L55.0314 97.577V97.577ZM70.8191 48.4622C70.8191 48.4622 72.7042 53.4617 72.4067 56.7219C72.1153 59.982 72.0758 62.4044 72.4431 63.5305C73.2779 66.0804 76.0402 67.5132 76.0402 67.5132C76.0402 67.5132 72.0576 70.1207 70.3152 72.1484C68.5789 74.1761 67.5681 76.2767 65.6071 77.3634C63.6462 78.4501 51.4798 83.3768 48.2166 86.2029C44.9534 89.0289 24.9645 120.468 23.5136 122.423C22.0595 124.378 10.476 130.534 10.476 130.534C10.476 130.534 17.7916 123.579 20.1745 120.683C22.5634 117.784 38.1873 86.5884 43.2505 82.8699C48.3016 79.1605 61.4697 71.6415 63.0603 68.7425C64.6692 65.8497 70.8191 48.4622 70.8191 48.4622V48.4622Z" fill="#B69B79"/>
</svg>
